ir/chat-bubble-translate.svg

<svg stroke-width="1.5" viewBox="0 0 24 24" fill="none" xmlns="http://www.w3.org/2000/svg" height="1em" width="1em">
  <path d="M12 22C17.5228 22 22 17.5228 22 12C22 6.47715 17.5228 2 12 2C6.47715 2 2 6.47715 2 12C2 13.8214 2.48697 15.5291 3.33782 17L2.5 21.5L7 20.6622C8.47087 21.513 10.1786 22 12 22Z" stroke="currentColor" stroke-linecap="round" stroke-linejoin="round"/>
  <path d="M7 8.51724H12M17 8.51724H15.2143M12 8.51724H15.2143M12 8.51724V7M15.2143 8.51724C14.6282 10.5922 13.4009 12.5536 12 14.2773M8.42857 18C9.561 16.9691 10.84 15.7047 12 14.2773M12 14.2773C11.2857 13.4483 10.2857 12.1069 10 11.5M12 14.2773L14.1429 16.4828" stroke="currentColor" stroke-linecap="round" stroke-linejoin="round"/>
</svg>

<svg stroke-width="1.5" viewBox="0 0 24 24" fill="none" xmlns="http://www.w3.org/2000/svg" height="1em" width="1em">
  <path d="M12 22c5.523 0 10-4.477 10-10S17.523 2 12 2 2 6.477 2 12c0 1.821.487 3.53 1.338 5L2.5 21.5l4.5-.838A9.955 9.955 0 0 0 12 22Z" stroke="currentColor" stroke-linecap="round" stroke-linejoin="round"/>
  <path d="M7 8.517h5m5 0h-1.786m-3.214 0h3.214m-3.214 0V7m3.214 1.517c-.586 2.075-1.813 4.037-3.214 5.76M8.429 18C9.56 16.97 10.84 15.705 12 14.277m0 0c-.714-.829-1.714-2.17-2-2.777m2 2.777 2.143 2.206" stroke="currentColor" stroke-linecap="round" stroke-linejoin="round"/>
</svg>
